X:1
T: Mrs. Shearer of Buchromb
C:William Marshall
R:Strathspey
Q: 128
K:Fm
M:4/4
L:1/16
|:CF3 F2GA AGF=E F4|CF3 F3A G3E BG3|CF3 F2GA AGFE e3B|c2=de cBAB G3E B2G2|
CF3 F2GA AGF=E F4|CF3 F3A G3E BG3|CF3 F2GA AGFE e3B|c2=de cBAB G3E B2G2|
F3f f2ga agf=e f4|cf3 f3a g3e bg3|e3d c3B ((3B2A2B2) G4|c2C2 A3B cBAG A2F2|
F3f f2ga agf=e f4|cf3 f3a g3e bg3|a3f g3e f3=d e3B|c2=de cBAB G3E B2G2:|
